!!!COM: Bach, Johann Sebastian
!!!CDT: 1685/3//-1750/7/28/
!!!OTL@@DE: Von Gott will ich nicht lassen
!!!AGN: 4-Part Chorale
!!!SCT: BH 191
!!!SCT: BWV 73
**harm	**root	**kern	**kern	**kern	**kern
!	!	!bass	!tenor	!alto	!soprno
*	*Iorgan	*Iorgan	*Iorgan	*Iorgan	*Iorgan
*	*	*clefF4	*clefF4	*clefG2	*clefG2
*k[f#c#g#d#a#]	*k[f#c#g#d#a#]	*k[f#c#g#d#a#]	*k[f#c#g#d#a#]	*k[f#c#g#d#a#]	*k[f#c#g#d#a#]
*g#:	*g#:	*g#:	*g#:	*g#:	*g#:
*M4/4	*M4/4	*M4/4	*M4/4	*M4/4	*M4/4
*met(c)	*met(c)	*met(c)	*met(c)	*met(c)	*met(c)
*MM60	*MM60	*MM60	*MM60	*MM60	*MM60
*>[A,A,B]	*>[A,A,B]	*>[A,A,B]	*>[A,A,B]	*>[A,A,B]	*>[A,A,B]
*>A	*>A	*>A	*>A	*>A	*>A
i	4AA	4GG#	4G#	4B	4d#
=1	=1	=1	=1	=1	=1
i	4AA	4G#	4B	4d#	4g#
Vb	4EE	4F##	4A#	4d#	4a#
i	4AA	4G#	4G#	4d#	4b
Vb/-VII	4DD	4E#	4G#	4c#	4cc#
=2	=2	=2	=2	=2	=2
-VII	4GG	4F#	4F#	8c#	2a#
.	.	.	.	8d#	.
Vb/V	4BB	4C##	4E#	4e#	.
v;	4EE;	4D#;	4A#;	4d#;	4f#;
III	4CC	4BB	4B	4d#	4f#
=3	=3	=3	=3	=3	=3
VI	4FF	4E	4G#	4B	4g#
iv	4DD	4C#	4E	4c#	4g#
V7b	2EE	4FF##	4D#	8c#	4a#
.	.	.	.	8e	.
.	.	4FF##	4D#	8d#	4a#
.	.	.	.	8c#	.
=4	=4	=4	=4	=4	=4
i;	2.AA;	2.GG#;	2.G#;	2.B;	2.d#;
=:|!	=:|!	=:|!	=:|!	=:|!	=:|!
*>B	*>B	*>B	*>B	*>B	*>B
i	4AA	4G#	4B	4g#	4dd#
=5	=5	=5	=5	=5	=5
iv	4DD	4E	4c#	4g#	4cc#
iv7	4DD	4C#	4e	4g#	4b
IIIc	4CC	4F#	4d#	4f#	4b
-VII	4GG	4FF#	4c#	4f#	4a#
=6	=6	=6	=6	=6	=6
III;	2.CC;	2.BB;	2.d#;	2.f#;	2.b;
-VII	4GG	4F#	4c#	4f#	4a#
!!linebreak: 2
=7	=7	=7	=7	=7	=7
IIIb	4CC	4D#	4.B	4f#	4b
iiob	4BB	4C#	.	4e	4cc#
.	.	.	[8A#	.	.
III	4CC	4BB	8A#]	4f#	4dd#
.	.	.	8F#	.	.
i	4AA	4GG#	4B	8g#	4dd#
.	.	.	.	8f#	.
=8	=8	=8	=8	=8	=8
V7/-VII	2DD	2C#	4B	8e#	2cc#
.	.	.	.	8d#	.
.	.	.	8A#	4e#	.
.	.	.	8G#	.	.
-VII;	4GG;	4FF#;	4F#;	4c#;	4a#;
-VII	4GG	4F#	4c#	4f#	4a#
=9	=9	=9	=9	=9	=9
IIIb	4CC	4D#	4B	4f#	4b
III7	4CC	4BB	4F#	4d#	4a#
VI	4FF	4E	8G#	4B	4g#
.	.	.	8A#	.	.
VI7	4FF	4D#	4B	[4e	4g#
=10	=10	=10	=10	=10	=10
iiob	4BB	4C#	4c#	8e]	4a#
.	.	.	.	8d#	.
vii7/V	4DD#	4C##	4B	4e#	4g#
v;	4EE;	4D#;	4A#;	4d#;	4f#;
V7/III	4GG	4AA#	4F#	4c#	4e
=11	=11	=11	=11	=11	=11
III	4CC	4BB	4F#	4B	4d#
ivb	4DD	4E	8G#	4c#	4g#
.	.	.	8A#	.	.
ic	4AA	4D#	8B	4d#	4g#
.	.	.	16A#	.	.
.	.	.	16G#	.	.
V	4EE	4DD#	4A#	4d#	4f##
=12	=12	=12	=12	=12	=12
I;	2.AA;	2.GG#;	2.B#;	2.d#;	2.g#;
==	==	==	==	==	==
*-	*-	*-	*-	*-	*-
!!chor2scor: -l 2 -s 0.6 -o %b.pmx
!!!YEC: Copyright 2001 by Craig Stuart Sapp
!!!license: GNU General Public License (http://www.gnu.org/copyleft/gpl.html)
!!!SMA: 371 Bach Chorales, edited by Ludwig Erk, C.F. Peters
!!!PDT: 1850, 1865
!!!ONB: Harmony and Root analysis done manually by Craig Sapp
